X:109
T: Calliope House
R: jig
M: 6/8
L: 1/8
K: Emaj
B|:"E"eBB gBB|fBB gfe|"A"cff f2e|"B"fgf e2c|"E"BcB B2G|
B2c e2f|1 "A"g2b gfe|"B"f3 f2B:|2 "A"gbg "B"fec|"E"e3 ega|
|:"E"b3 gbb|fbb gbb|"A"a3 gag|"B"f2e c2e|"E"BcB B2G|
B2c e2f|1 "A"g2b gfe|"B"f3 fga:|2 "A"gbg "B"fec| "E"e3 e2|]

%%newpage

